outputs/icons/general/store_release_round.svg

<svg xmlns="http://www.w3.org/2000/svg" width="1200" height="1200" fill="none"><path fill="#000" d="M200 212.5c0-6.904 5.596-12.5 12.5-12.5h775c6.905 0 12.5 5.596 12.5 12.5v75c0 6.904-5.595 12.5-12.5 12.5h-775c-6.904 0-12.5-5.596-12.5-12.5z"/><path fill="#000" fill-rule="evenodd" d="M592.9 1000c8.065 0 14.01-7.525 12.54-15.455A327 327 0 0 1 600 925c0-179.495 145.505-325 325-325 44.295 0 86.52 8.86 125 24.91V600l-47.99-239.952A12.5 12.5 0 0 0 989.75 350H210.248a12.5 12.5 0 0 0-12.258 10.048L150 600v87.5c0 6.905 5.596 12.5 12.5 12.5H200v287.5c0 6.905 5.596 12.5 12.5 12.5zM300 900h300V700H300z"/><path fill="#000" d="M1077.325 815.705c5.425 9.395 19.43 7.89 22.735-2.445l24.925-77.99c2.245-7.025-2.045-14.455-9.245-16.02l-80.01-17.405c-10.6-2.31-18.905 9.065-13.48 18.465l17.12 29.655L759.715 911.42c-9.96 5.755-13.375 18.495-7.625 28.46 5.755 9.965 18.495 13.38 28.46 7.625l279.655-161.455z"/></svg>

<svg width="1200" height="1200" viewBox="0 0 1200 1200" fill="none" xmlns="http://www.w3.org/2000/svg"><path d="M200 212.5C200 205.596 205.596 200 212.5 200H987.5C994.405 200 1000 205.596 1000 212.5V287.5C1000 294.404 994.405 300 987.5 300H212.5C205.596 300 200 294.404 200 287.5V212.5Z" fill="black"/><path fill-rule="evenodd" d="M592.9 1000C600.965 1000 606.91 992.475 605.44 984.545C601.87 965.24 600 945.34 600 925C600 745.505 745.505 600 925 600C969.295 600 1011.52 608.86 1050 624.91V600L1002.01 360.048C1000.84 354.206 995.71 350 989.75 350H210.248C204.289 350 199.159 354.205 197.99 360.048L150 600V687.5C150 694.405 155.596 700 162.5 700H200V987.5C200 994.405 205.596 1000 212.5 1000H592.9ZM300 900H600V700H300V900Z" fill="black"/><path d="M1077.325 815.705C1082.75 825.1 1096.755 823.595 1100.06 813.26L1124.985 735.27C1127.23 728.245 1122.94 720.815 1115.74 719.25L1035.73 701.845C1025.13 699.535 1016.825 710.91 1022.25 720.31L1039.37 749.965L759.715 911.42C749.755 917.175 746.34 929.915 752.09 939.88C757.845 949.845 770.585 953.26 780.55 947.505L1060.205 786.05L1077.325 815.705Z" fill="black"/></svg>
